assets/icons/facebook.svg

<?xml version="1.0" encoding="UTF-8"?>
<svg xmlns="http://www.w3.org/2000/svg" xmlns:xlink="http://www.w3.org/1999/xlink" width="24pt" height="24pt" viewBox="0 0 24 24" version="1.1">
<g id="surface1166874">
<path style=" stroke:none;fill-rule:nonzero;fill:rgb(26.274511%,25.490198%,56.470591%);fill-opacity:1;" d="M 12 2 C 6.476562 2 2 6.476562 2 12 C 2 17.011719 5.691406 21.152344 10.503906 21.875 L 10.503906 14.648438 L 8.03125 14.648438 L 8.03125 12.019531 L 10.503906 12.019531 L 10.503906 10.273438 C 10.503906 7.375 11.914062 6.105469 14.324219 6.105469 C 15.476562 6.105469 16.085938 6.191406 16.375 6.230469 L 16.375 8.523438 L 14.730469 8.523438 C 13.710938 8.523438 13.351562 9.492188 13.351562 10.585938 L 13.351562 12.019531 L 16.347656 12.019531 L 15.941406 14.648438 L 13.355469 14.648438 L 13.355469 21.898438 C 18.234375 21.234375 22 17.0625 22 12 C 22 6.476562 17.523438 2 12 2 Z M 12 2 "/>
</g>
</svg>

<svg xmlns="http://www.w3.org/2000/svg" width="32" height="32" viewBox="0 0 24 24"><path d="M12 2C6.477 2 2 6.477 2 12c0 5.012 3.691 9.152 8.504 9.875v-7.227H8.03V12.02h2.473v-1.747c0-2.898 1.41-4.168 3.82-4.168 1.153 0 1.762.086 2.051.125v2.293H14.73c-1.02 0-1.378.97-1.378 2.063v1.434h2.996l-.407 2.628h-2.586v7.25C18.235 21.234 22 17.063 22 12c0-5.523-4.477-10-10-10zm0 0" fill="#434190"/></svg>
